content/img/portfolio.svg

<svg height="800" viewBox="0 0 512 512" width="800" xmlns="http://www.w3.org/2000/svg"><path d="m488.727 100.848h-116.363v-69.818c0-12.853-10.42-23.273-23.273-23.273h-186.182c-12.853 0-23.273 10.42-23.273 23.273v69.818h-116.363c-12.853 0-23.273 10.42-23.273 23.273v170.667c0 11.247 8.045 20.885 19.11 22.897l11.92 2.166v161.119c0 12.853 10.42 23.273 23.273 23.273h403.394c12.853 0 23.273-10.42 23.273-23.273v-161.119l11.922-2.166c11.064-2.012 19.108-11.65 19.108-22.897v-170.667c0-12.853-10.42-23.273-23.273-23.273zm-302.545-46.545h139.636v46.545h-139.636zm248.242 403.394h-356.848v-129.382l93.091 16.925v27.124c0 12.853 10.42 23.273 23.273 23.273h124.121c12.853 0 23.273-10.42 23.273-23.273v-27.122l93.091-16.925v129.38zm-217.212-108.606v-46.545h77.576v46.545zm248.243-73.727-124.121 22.568v-18.66c0-12.853-10.42-23.273-23.273-23.273h-124.122c-12.853 0-23.273 10.42-23.273 23.273v18.66l-124.121-22.568v-127.97h116.364 186.182 116.364z"/></svg>

<?xml version="1.0" encoding="iso-8859-1"?>
<!-- Uploaded to: SVG Repo, www.svgrepo.com, Generator: SVG Repo Mixer Tools -->
<svg fill="#000000" height="800px" width="800px" version="1.1" id="Layer_1" xmlns="http://www.w3.org/2000/svg" xmlns:xlink="http://www.w3.org/1999/xlink" 
	 viewBox="0 0 512 512" xml:space="preserve">
<g>
	<g>
		<path d="M488.727,100.848H372.364V31.03c0-12.853-10.42-23.273-23.273-23.273H162.909c-12.853,0-23.273,10.42-23.273,23.273
			v69.818H23.273C10.42,100.848,0,111.268,0,124.121v170.667c0,11.247,8.045,20.885,19.11,22.897l11.92,2.166V480.97
			c0,12.853,10.42,23.273,23.273,23.273h403.394c12.853,0,23.273-10.42,23.273-23.273V319.851l11.922-2.166
			c11.064-2.012,19.108-11.65,19.108-22.897V124.121C512,111.268,501.58,100.848,488.727,100.848z M186.182,54.303h139.636v46.545
			H186.182V54.303z M434.424,457.697H77.576V328.315l93.091,16.925v27.124c0,12.853,10.42,23.273,23.273,23.273h124.121
			c12.853,0,23.273-10.42,23.273-23.273v-27.122l93.091-16.925V457.697z M217.212,349.091v-46.545h77.576v46.545H217.212z
			 M465.455,275.364l-124.121,22.568v-18.66c0-12.853-10.42-23.273-23.273-23.273H193.939c-12.853,0-23.273,10.42-23.273,23.273
			v18.66L46.545,275.364V147.394h116.364h186.182h116.364V275.364z"/>
	</g>
</g>
</svg>
